img/techno-color.svg

<svg width="115" height="115" viewBox="0 0 115 115" fill="none" xmlns="http://www.w3.org/2000/svg">
<path d="M0.17575 57.6096C-2.21515 32.8075 19.9473 0.544582 56.9412 0.403277C88.4637 0.278927 114.187 26.2623 114.181 57.717C114.181 89.2395 88.4806 114.601 56.8394 114.805C22.4229 115.025 -2.02862 84.6273 0.17575 57.6096Z" fill="#262761"/>
<path d="M102.583 57.5871C102.64 83.0844 82.3311 103.557 56.9412 103.596C31.5005 103.636 11.0225 83.2313 10.9886 57.8189C10.9547 32.3329 31.2631 11.9058 56.6925 11.8492C82.1672 11.7927 102.527 32.0842 102.583 57.5871Z" fill="#FD8300"/>
<path d="M29.9233 51.9063C34.3208 30.3034 60.745 23.9899 73.4569 36.1422C57.3763 52.528 47.3492 59.4068 31.4551 52.9463C30.7599 52.8728 30.2399 52.5337 29.9233 51.9063Z" fill="#262761"/>
<path d="M29.9234 51.9065C30.4321 52.2513 31.3817 52.3361 31.4552 52.9465C32.3482 60.2379 30.6865 61.487 30.1382 65.7432L30.2456 65.6188C28.0243 65.5114 25.7068 65.7771 23.6099 65.2119C19.7268 64.1719 13.7297 63.1149 13.5828 59.6275C13.3906 55.247 18.7489 52.0817 22.3268 49.2217C25.1303 46.9778 27.1708 51.443 29.9291 51.9065H29.9234Z" fill="#2B295E"/>
<path d="M61.4461 54.7497C54.7143 60.7015 47.7225 66.382 41.3468 72.6955C36.6159 77.3812 34.3606 75.2786 32.2749 70.6099C31.5458 68.9764 30.9184 67.2864 30.2514 65.6246L30.144 65.7489C42.4716 67.4842 51.7638 61.6228 60.2309 53.7153C60.8526 53.8058 61.2596 54.1506 61.4461 54.7497Z" fill="#2F2B5D"/>
<path d="M61.4459 54.7498C61.039 54.405 60.632 54.0602 60.2307 53.7154C64.0855 50.3015 67.9121 46.8536 71.8008 43.4849C77.6453 38.4148 77.8487 38.477 81.664 45.4631C82.3027 46.6275 83.0431 47.7353 83.7553 48.8545C83.7666 48.8375 83.874 48.7132 83.8797 48.7019C76.3396 50.4428 68.2795 50.3071 61.4516 54.7498H61.4459Z" fill="#262760"/>
<path d="M83.6763 62.9793C79.1997 84.5652 52.7529 90.777 40.0806 78.5795C56.2234 62.2558 66.273 55.4166 82.1445 61.9336C82.8397 62.0128 83.3597 62.3462 83.6763 62.9793Z" fill="#262761"/>
<path d="M83.6762 62.9792C83.1675 62.6288 82.218 62.544 82.1445 61.9336C81.2797 54.6422 82.9471 53.3931 83.5123 49.1426L83.4049 49.2669C85.6263 49.3856 87.9437 49.1256 90.0407 49.6965C93.9181 50.7535 99.9095 51.833 100.051 55.3205C100.226 59.701 94.8564 62.8436 91.2672 65.698C88.4524 67.9363 86.4289 63.4597 83.6762 62.9849V62.9792Z" fill="#2B295E"/>
<path d="M25.362 33.7802L24.3559 35.2837L28.7024 38.1946L27.9507 39.3193L23.6041 36.4084L22.598 37.9063L21.6824 37.2902L24.4463 33.1641L25.362 33.7802Z" fill="#262761"/>
<path d="M32.6591 33.4012L30.1608 36.199L25.4355 31.9825L27.8321 29.292L28.6573 30.0268L27.1595 31.7111L28.273 32.7059L29.6691 31.1459L30.4886 31.8807L29.0925 33.4407L30.2343 34.4638L31.8339 32.672L32.6591 33.4068V33.4012Z" fill="#262761"/>
<path d="M37.1524 29.5576L35.9202 30.5863L33.6989 29.6989C33.6198 29.6649 33.4954 29.5858 33.3372 29.4615L33.3259 29.4728C33.3711 29.5632 33.4276 29.7045 33.4841 29.891L33.9476 32.2254L32.7098 33.2598L32.2406 29.5236L28.7871 28.2858L30.0476 27.2345L32.0145 28.1162C32.1728 28.1897 32.3367 28.2801 32.5006 28.3932L32.5119 28.3819C32.4441 28.2123 32.3819 28.0314 32.3254 27.828L31.8958 25.6858L33.0545 24.7192L33.5972 28.3593L37.1524 29.5519V29.5576Z" fill="#262761"/>
<path d="M42.279 26.5902L41.109 27.2629L39.809 24.9963L37.4633 26.3359L38.7633 28.6024L37.5933 29.2751L34.4507 23.7754L35.6207 23.1028L36.8924 25.3185L39.2325 23.9789L37.9607 21.7576L39.1307 21.085L42.2734 26.5846L42.279 26.5902Z" fill="#262761"/>
<path d="M42.0248 23.295C41.7027 22.3567 41.7196 21.4975 42.0701 20.7232C42.4205 19.9488 43.0422 19.4062 43.9409 19.101C44.8001 18.8071 45.5857 18.858 46.3036 19.2536C47.0214 19.6436 47.5301 20.288 47.8353 21.1867C48.1519 22.1193 48.1406 22.9728 47.7958 23.7358C47.451 24.5045 46.8405 25.0358 45.9588 25.3354C45.0997 25.6293 44.3027 25.5841 43.5792 25.1998C42.8557 24.8154 42.3357 24.1824 42.0361 23.295H42.0248ZM43.3418 22.7693C43.5396 23.3515 43.8449 23.781 44.2518 24.058C44.6588 24.335 45.1053 24.3858 45.5971 24.2219C46.1001 24.0524 46.4279 23.7415 46.5862 23.2893C46.7445 22.8371 46.7218 22.3171 46.5184 21.718C46.3036 21.0962 46.004 20.6441 45.6084 20.3728C45.2127 20.1014 44.7718 20.0506 44.2801 20.2201C43.777 20.3897 43.4492 20.7119 43.2853 21.181C43.1214 21.6502 43.144 22.1815 43.3475 22.7693H43.3418Z" fill="#262761"/>
<path d="M51.6561 21.8029L49.2765 22.2381L49.1069 21.3224L51.4865 20.8872L51.6561 21.8029Z" fill="#262761"/>
<path d="M58.5236 23.3063L57.1728 23.3572L56.9862 18.2136L54.2901 18.3097L54.4766 23.4533L53.1257 23.5041L52.8997 17.1736L58.2975 16.9814L58.5236 23.3119V23.3063Z" fill="#262761"/>
<path d="M59.801 20.2656C59.9536 19.2821 60.3606 18.5304 61.0276 18.0047C61.6945 17.4791 62.4971 17.2869 63.4411 17.4282C64.3341 17.5639 65.0124 17.9765 65.4646 18.6547C65.9167 19.333 66.075 20.1413 65.928 21.0739C65.7754 22.0517 65.3741 22.7978 64.7128 23.3178C64.0515 23.8378 63.2602 24.03 62.3445 23.8887C61.4458 23.7531 60.7619 23.3461 60.2928 22.6678C59.8236 21.9896 59.6597 21.1926 59.801 20.2656ZM61.2141 20.4069C61.118 21.0174 61.1915 21.5374 61.4232 21.967C61.6549 22.3965 62.028 22.6565 62.5424 22.73C63.0624 22.8091 63.4976 22.6848 63.848 22.3626C64.1985 22.0348 64.4189 21.56 64.515 20.9382C64.6167 20.2882 64.5545 19.7513 64.3285 19.3274C64.1024 18.9034 63.735 18.6547 63.2206 18.5756C62.695 18.4965 62.2541 18.6265 61.898 18.9656C61.5363 19.3047 61.3102 19.7852 61.2141 20.4013V20.4069Z" fill="#262761"/>
<path d="M71.0037 26.1892L69.7319 25.7426L71.4615 20.8365L70.218 20.3956C69.1215 22.5096 68.3415 23.7926 67.8836 24.2505C67.4201 24.7083 66.8945 24.8326 66.301 24.6235C66.0466 24.5331 65.8262 24.4087 65.634 24.2561L65.9958 23.2331C66.1371 23.3517 66.2671 23.4309 66.3858 23.4704C66.4706 23.4987 66.5667 23.5044 66.6571 23.4818C66.7532 23.4591 66.8719 23.38 67.0075 23.25C67.1488 23.12 67.3636 22.8317 67.6575 22.3796C67.9514 21.9274 68.2623 21.3848 68.6015 20.7517L69.5567 18.96L73.1063 20.2148L70.998 26.1892H71.0037Z" fill="#262761"/>
<path d="M76.9614 29.5126L75.8593 28.8683L77.6793 25.7595C77.8658 25.4373 78.0523 25.1547 78.2275 24.9117L78.2049 24.8947C78.1201 24.9569 77.9449 25.053 77.6849 25.1886L73.2988 27.3704L72.1118 26.6752L75.311 21.2095L76.4132 21.8538L74.5875 24.9682C74.3671 25.3469 74.2088 25.59 74.1127 25.703H74.124L78.9001 23.3065L80.1663 24.0469L76.9671 29.5126H76.9614Z" fill="#262761"/>
<path d="M82.2178 34.0911L84.8291 31.2707C85.0721 31.0106 85.383 30.6941 85.7787 30.3267L85.7561 30.3041C85.4226 30.5472 85.1852 30.6998 85.0608 30.7676L80.946 32.9098L80.1547 32.1807L81.9295 27.9302C81.9691 27.8284 82.116 27.5741 82.3647 27.1671L82.3365 27.1445C82.003 27.5571 81.6525 27.9641 81.2908 28.3541L78.8603 30.9824L77.9673 30.1572L82.2686 25.5054L83.71 26.8393L82.1104 30.5754C81.9804 30.8863 81.8334 31.1576 81.6752 31.3893L81.6978 31.4063C81.9973 31.2085 82.263 31.0502 82.5004 30.9259L86.1009 29.055L87.5026 30.3493L83.2013 35.0011L82.2234 34.0968L82.2178 34.0911Z" fill="#262761"/>
<path d="M86.1233 39.0364L83.885 36.0294L88.9664 32.248L91.1142 35.142L90.2268 35.8033L88.8816 33.9946L87.6833 34.8876L88.9325 36.5664L88.0507 37.222L86.8016 35.5433L85.5694 36.459L86.9994 38.3864L86.112 39.0477L86.1233 39.0364Z" fill="#262761"/>
<path d="M89.1532 39.8786L87.2088 40.9299L86.5645 39.7429L92.1319 36.7246L93.1719 38.6407C93.9237 40.0255 93.7089 41.0373 92.5389 41.676C91.968 41.9868 91.3971 42.0264 90.8262 41.7947C90.2554 41.5629 89.8088 41.1277 89.481 40.4946L89.1475 39.8842L89.1532 39.8786ZM91.8606 38.409L90.0632 39.3812L90.3402 39.8955C90.7189 40.5907 91.2106 40.7773 91.8154 40.4494C92.4089 40.1273 92.5163 39.6242 92.1432 38.9346L91.8606 38.409Z" fill="#262761"/>
<path d="M91.2106 78.6871L92.0528 77.0875L87.4236 74.6514L88.051 73.4531L92.6802 75.8892L93.5167 74.2953L94.4945 74.8097L92.1828 79.2014L91.2049 78.6871H91.2106Z" fill="#262761"/>
<path d="M83.9981 79.8288L86.1855 76.7822L91.3291 80.4788L89.2264 83.4066L88.3277 82.7623L89.6391 80.931L88.4238 80.0605L87.2029 81.7618L86.3099 81.1231L87.5308 79.4218L86.2873 78.5288L84.8855 80.4788L83.9868 79.8344L83.9981 79.8288Z" fill="#262761"/>
<path d="M80.4883 83.8873C80.6465 83.4012 80.98 82.8868 81.4944 82.3555C82.1557 81.6659 82.8848 81.3212 83.6874 81.3155C84.4901 81.3099 85.2305 81.632 85.9144 82.2933C86.6323 82.9886 87.0053 83.7799 87.0336 84.6729C87.0618 85.566 86.7284 86.3686 86.0388 87.0808C85.6092 87.5273 85.1909 87.8438 84.7896 88.0304L83.8514 87.126C84.3262 86.9903 84.7557 86.7303 85.1344 86.3403C85.564 85.8938 85.7675 85.4021 85.7392 84.8595C85.711 84.3168 85.4679 83.8251 85.0101 83.3842C84.5635 82.9547 84.0775 82.7342 83.5631 82.7229C83.0487 82.7116 82.5796 82.9264 82.1613 83.356C81.7713 83.7629 81.5113 84.2264 81.387 84.7521L80.4939 83.8929L80.4883 83.8873Z" fill="#262761"/>
<path d="M75.3279 87.5048L76.4188 86.7078L77.9618 88.8161L80.1379 87.2221L78.5949 85.1139L79.6858 84.3169L83.4275 89.4265L82.3366 90.2235L80.8275 88.1604L78.6514 89.7543L80.1605 91.8174L79.0697 92.6144L75.3279 87.5048Z" fill="#262761"/>
<path d="M69.1895 90.5229L70.4386 89.9351L74.6043 92.5125C74.8191 92.6482 74.983 92.7612 75.0961 92.8517L75.113 92.8404C75 92.6538 74.8474 92.3543 74.6496 91.9416L73.1234 88.6803L74.2822 88.1377L76.967 93.8747L75.633 94.4965L71.603 91.9869C71.3373 91.8173 71.1678 91.7099 71.1056 91.6647L71.0886 91.676C71.1791 91.8003 71.3147 92.0604 71.4956 92.4504L73.0274 95.723L71.8687 96.2656L69.1838 90.5286L69.1895 90.5229Z" fill="#262761"/>
<path d="M69.1668 93.8125C69.4042 94.7733 69.3194 95.6268 68.9068 96.3729C68.4942 97.119 67.8272 97.6051 66.9003 97.8312C66.0242 98.046 65.2442 97.9329 64.5602 97.4808C63.882 97.0286 63.4241 96.3447 63.198 95.4233C62.9607 94.4681 63.0454 93.6203 63.4581 92.8855C63.865 92.1507 64.5207 91.6703 65.425 91.4498C66.3068 91.2294 67.0924 91.3424 67.7877 91.7833C68.4829 92.2242 68.9407 92.9024 69.1668 93.8125ZM67.8046 94.2251C67.6577 93.6259 67.392 93.1738 67.0077 92.8629C66.6233 92.552 66.1824 92.4616 65.6794 92.5859C65.165 92.7103 64.8089 92.9929 64.6168 93.4281C64.4189 93.8633 64.3963 94.389 64.5489 94.9994C64.7072 95.6381 64.9729 96.1129 65.3402 96.4125C65.7076 96.7177 66.1485 96.8025 66.6516 96.6781C67.1659 96.5538 67.522 96.2599 67.7255 95.8077C67.929 95.3555 67.9516 94.8242 67.8046 94.2194V94.2251Z" fill="#262761"/>
<path d="M59.4392 94.4793L61.8471 94.2476L61.9375 95.1745L59.5296 95.4063L59.4392 94.4793Z" fill="#262761"/>
<path d="M56.6809 94.7847L56.7431 92.5747L58.094 92.6143L57.9131 98.9448L55.737 98.8826C54.16 98.8374 53.3913 98.1478 53.4309 96.8139C53.4479 96.1639 53.7022 95.6495 54.1883 95.2765C54.6744 94.9034 55.2735 94.7282 55.9914 94.7678L56.6866 94.7904L56.6809 94.7847ZM56.5905 97.8652L56.647 95.8191L56.0648 95.8021C55.2735 95.7795 54.8666 96.113 54.844 96.8026C54.827 97.4752 55.2057 97.8256 55.9914 97.8482L56.5905 97.8652Z" fill="#262761"/>
<path d="M52.6171 95.5194C52.4192 96.4916 51.9784 97.2264 51.2831 97.7238C50.5936 98.2212 49.7796 98.3738 48.847 98.1872C47.9596 98.0064 47.304 97.5655 46.8857 96.8703C46.4618 96.1694 46.3487 95.3555 46.5353 94.4285C46.7331 93.462 47.1683 92.7328 47.8579 92.2467C48.5418 91.7607 49.3388 91.608 50.2488 91.7889C51.1362 91.9698 51.8031 92.405 52.2384 93.1059C52.6736 93.8011 52.8036 94.6094 52.6171 95.5307V95.5194ZM51.2096 95.3103C51.334 94.7055 51.2831 94.1855 51.074 93.7389C50.8592 93.2981 50.4975 93.0267 49.9944 92.9194C49.4744 92.812 49.0335 92.9194 48.6718 93.2246C48.3101 93.5298 48.067 93.9989 47.937 94.6207C47.807 95.265 47.8409 95.8077 48.0501 96.2372C48.2535 96.6668 48.6096 96.9381 49.124 97.0398C49.644 97.1472 50.0905 97.0398 50.4636 96.712C50.8423 96.3898 51.091 95.9207 51.2153 95.3046L51.2096 95.3103Z" fill="#262761"/>
<path d="M42.9066 89.6128L46.3883 90.9185L44.1614 96.8477L42.8953 96.3729L44.7379 91.478L42.5222 90.6472L42.9122 89.6128H42.9066Z" fill="#262761"/>
<path d="M35.7679 93.0266L39.487 90.3757L40.5327 88.3691L41.731 88.9909L40.6966 90.9748L40.5836 95.5362L39.2157 94.824L39.3909 92.1844C39.3909 92.1335 39.4249 91.9583 39.487 91.67H39.4701C39.3514 91.817 39.2383 91.9414 39.1253 92.0318L37.034 93.6822L35.7622 93.0209L35.7679 93.0266Z" fill="#262761"/>
<path d="M33.7442 83.6046L31.342 86.6059C31.1216 86.8829 30.8277 87.222 30.4659 87.6177L30.4886 87.6403C30.8051 87.3746 31.0255 87.2051 31.1499 87.1259L35.1008 84.6955L35.9373 85.3681L34.4677 89.7316C34.4338 89.839 34.3038 90.099 34.089 90.5229L34.1173 90.5455C34.4225 90.1103 34.739 89.6808 35.0782 89.2625L37.3165 86.4646L38.266 87.2277L34.3038 92.1734L32.7721 90.9469L34.1003 87.1033C34.2077 86.7868 34.3321 86.5042 34.4734 86.2611L34.4508 86.2442C34.1682 86.459 33.9138 86.6399 33.6821 86.7812L30.2229 88.9064L28.7307 87.7138L32.6929 82.7681L33.7329 83.5989L33.7442 83.6046Z" fill="#262761"/>
<path d="M29.505 78.9585L31.9524 81.8016L27.1537 85.9334L24.8024 83.2033L25.6389 82.4855L27.1085 84.1925L28.2389 83.2203L26.8711 81.632L27.7076 80.9142L29.0755 82.5025L30.2398 81.502L28.6741 79.682L29.5107 78.9642L29.505 78.9585Z" fill="#262761"/>
<path d="M26.2097 73.8712L27.0406 75.1825L26.1815 76.9008C26.0006 77.2569 25.9045 77.5169 25.8932 77.6751C25.8819 77.8334 25.9158 77.9803 25.9893 78.1047L26.2097 78.4495L28.2841 77.1382L29.0076 78.2799L23.6549 81.6656L22.4679 79.7891C21.6653 78.5173 21.7445 77.5734 22.711 76.9573C23.0727 76.7255 23.4571 76.6351 23.8527 76.686C24.2484 76.7369 24.6158 76.9121 24.9606 77.2173L24.9719 77.206C24.8984 76.9064 25.0001 76.4599 25.2714 75.8721L26.221 73.8599L26.2097 73.8712ZM23.7962 79.9812L25.3393 79.0091L24.9832 78.4495C24.8136 78.1838 24.5988 78.0143 24.3445 77.9521C24.0845 77.8899 23.8414 77.9295 23.6097 78.0764C23.1236 78.3816 23.0671 78.8225 23.4345 79.4047L23.8019 79.9869L23.7962 79.9812Z" fill="#262761"/>
</svg>

<svg width="115" height="115" fill="none" xmlns="http://www.w3.org/2000/svg"><path d="M.176 57.61C-2.215 32.807 19.947.545 56.94.403c31.523-.124 57.246 25.86 57.24 57.314 0 31.523-25.7 56.884-57.342 57.088C22.422 115.025-2.03 84.627.175 57.61z" fill="#262761"/><path d="M102.583 57.587c.057 25.497-20.252 45.97-45.642 46.009-25.44.04-45.919-20.365-45.952-45.777-.034-25.486 20.274-45.913 45.704-45.97 25.474-.056 45.834 20.235 45.89 45.738z" fill="#FD8300"/><path d="M29.923 51.906c4.398-21.603 30.822-27.916 43.534-15.764-16.08 16.386-26.108 23.265-42.002 16.804-.695-.073-1.215-.412-1.532-1.04z" fill="#262761"/><path d="M29.923 51.907c.51.344 1.459.43 1.532 1.04.893 7.29-.768 8.54-1.317 12.796l.108-.124c-2.222-.108-4.54.158-6.636-.407-3.883-1.04-9.88-2.097-10.027-5.585-.192-4.38 5.166-7.545 8.744-10.405 2.803-2.244 4.844 2.221 7.602 2.684h-.006z" fill="#2B295E"/><path d="M61.446 54.75c-6.732 5.952-13.724 11.632-20.1 17.945-4.73 4.686-6.985 2.584-9.071-2.085-.73-1.634-1.357-3.324-2.024-4.985l-.107.124c12.328 1.735 21.62-4.126 30.087-12.034.622.09 1.029.436 1.215 1.035z" fill="#2F2B5D"/><path d="M61.446 54.75c-.407-.345-.814-.69-1.215-1.035 3.854-3.414 7.681-6.861 11.57-10.23 5.844-5.07 6.048-5.008 9.863 1.978.639 1.164 1.38 2.272 2.091 3.392.012-.017.119-.142.125-.153-7.54 1.74-15.6 1.605-22.428 6.048h-.006z" fill="#262760"/><path d="M83.676 62.98C79.2 84.564 52.753 90.776 40.081 78.58c16.142-16.324 26.192-23.163 42.063-16.646.696.079 1.216.412 1.532 1.045z" fill="#262761"/><path d="M83.676 62.98c-.508-.351-1.458-.436-1.532-1.046-.864-7.292.803-8.54 1.368-12.791l-.107.124c2.221.119 4.539-.141 6.636.43 3.877 1.056 9.868 2.136 10.01 5.623.175 4.381-5.195 7.524-8.784 10.378-2.815 2.238-4.838-2.238-7.59-2.713v-.006z" fill="#2B295E"/><path d="M25.362 33.78l-1.006 1.504 4.346 2.91-.751 1.125-4.347-2.91-1.006 1.497-.916-.616 2.764-4.126.916.616zm7.298-.379l-2.5 2.798-4.724-4.216 2.396-2.691.825.735-1.497 1.684 1.113.995 1.396-1.56.82.735-1.396 1.56 1.141 1.023 1.6-1.792.825.735V33.4zm4.492-3.843l-1.232 1.028-2.22-.886a1.873 1.873 0 01-.362-.238l-.011.012c.045.09.102.232.158.418l.464 2.334-1.238 1.035-.47-3.736-3.453-1.238 1.26-1.052 1.967.882a3.3 3.3 0 01.487.277l.01-.011c-.067-.17-.13-.35-.186-.554l-.43-2.142 1.16-.967.542 3.64 3.555 1.193v.006zm5.127-2.968l-1.17.673-1.3-2.267-2.346 1.34 1.3 2.266-1.17.673-3.142-5.5 1.17-.672 1.271 2.215 2.34-1.34-1.271-2.22 1.17-.673 3.142 5.5.006.005zm-.254-3.295c-.322-.938-.305-1.798.045-2.572s.972-1.317 1.87-1.622c.86-.294 1.646-.243 2.364.153.717.39 1.226 1.034 1.531 1.933.317.932.306 1.786-.04 2.549-.344.768-.955 1.3-1.836 1.6-.86.293-1.656.248-2.38-.136-.723-.385-1.243-1.018-1.543-1.905h-.011zm1.317-.526c.198.583.503 1.012.91 1.289.407.277.853.328 1.345.164.503-.17.83-.48.99-.933.157-.452.135-.972-.069-1.571-.214-.622-.514-1.074-.91-1.345-.395-.272-.836-.322-1.328-.153-.503.17-.83.492-.995.961-.164.47-.141 1 .063 1.588h-.006zm8.314-.966l-2.38.435-.17-.916 2.38-.435.17.916zm6.868 1.503l-1.351.051-.187-5.143-2.696.096.187 5.143-1.351.051-.226-6.33 5.398-.193.226 6.33v-.005zm1.277-3.04c.153-.984.56-1.736 1.227-2.261.666-.526 1.47-.718 2.413-.577.893.136 1.571.549 2.024 1.227.452.678.61 1.486.463 2.419-.153.978-.554 1.724-1.215 2.244-.661.52-1.453.712-2.368.57-.9-.135-1.583-.542-2.052-1.22-.47-.678-.633-1.475-.492-2.402zm1.413.14c-.096.611-.023 1.131.21 1.561.23.43.604.69 1.118.763.52.08.956-.045 1.306-.367.35-.328.57-.803.667-1.425.102-.65.04-1.187-.186-1.61-.227-.425-.594-.673-1.108-.752-.526-.08-.967.05-1.323.39-.362.339-.588.82-.684 1.435v.006zm9.79 5.784l-1.272-.447 1.73-4.906-1.244-.441c-1.097 2.114-1.877 3.397-2.334 3.854-.464.458-.99.583-1.583.373a2.302 2.302 0 01-.667-.367l.362-1.023c.141.119.271.198.39.237a.49.49 0 00.271.012c.096-.023.215-.102.35-.232.142-.13.357-.418.65-.87.294-.453.605-.995.945-1.628l.955-1.792 3.55 1.255-2.109 5.974h.006zm5.957 3.323l-1.102-.645 1.82-3.108c.187-.323.373-.605.549-.848l-.023-.017c-.085.062-.26.158-.52.294l-4.386 2.181-1.187-.695 3.199-5.466 1.102.645-1.825 3.114c-.22.379-.38.622-.475.735h.011l4.776-2.396 1.266.74-3.199 5.466h-.006zm5.257 4.578l2.611-2.82c.243-.26.554-.577.95-.944l-.023-.023c-.333.243-.57.396-.695.464l-4.115 2.142-.791-.73 1.775-4.25c.04-.102.186-.356.435-.763l-.028-.023c-.334.413-.684.82-1.046 1.21l-2.43 2.628-.894-.825 4.302-4.652 1.441 1.334-1.6 3.736c-.13.311-.277.583-.435.814l.023.017c.3-.197.565-.356.802-.48l3.6-1.871 1.403 1.294-4.302 4.652-.978-.904-.005-.006zm3.905 4.945l-2.238-3.007 5.081-3.781 2.148 2.894-.887.661-1.345-1.808-1.199.893 1.25 1.678-.882.656-1.25-1.679-1.232.916L87 38.386l-.887.662.011-.012zm3.03.843l-1.944 1.05-.645-1.186 5.568-3.018 1.04 1.916c.752 1.385.537 2.396-.633 3.035-.571.31-1.142.35-1.713.119-.57-.232-1.017-.667-1.345-1.3l-.334-.61.006-.006zm2.708-1.47l-1.798.972.277.514c.379.696.87.882 1.475.554.594-.322.701-.825.328-1.514l-.282-.526zm-.651 40.278l.843-1.6-4.63-2.436.628-1.198 4.63 2.436.836-1.594.978.515-2.312 4.391-.978-.514h.006zm-7.212 1.142l2.188-3.047 5.143 3.697-2.103 2.928-.898-.645 1.311-1.831-1.215-.87-1.221 1.7-.893-.638 1.22-1.701-1.243-.893-1.402 1.95-.898-.645.011-.005zm-3.51 4.058c.159-.486.492-1 1.006-1.531.662-.69 1.39-1.035 2.193-1.04.803-.006 1.544.316 2.227.977.718.696 1.091 1.487 1.12 2.38.028.893-.306 1.696-.995 2.408-.43.446-.848.763-1.25.95l-.938-.905a2.873 2.873 0 001.283-.786c.43-.446.633-.938.605-1.48-.028-.543-.271-1.035-.729-1.476-.447-.43-.933-.65-1.447-.661-.514-.011-.983.203-1.402.633-.39.407-.65.87-.774 1.396l-.893-.86-.006-.005zm-5.16 3.618l1.09-.797 1.544 2.108 2.176-1.594-1.543-2.108 1.09-.797 3.742 5.11-1.09.796-1.51-2.063-2.176 1.594 1.51 2.063-1.091.797-3.742-5.11zm-6.138 3.018l1.249-.588 4.165 2.578a5.4 5.4 0 01.492.339l.017-.012a11.694 11.694 0 01-.463-.898l-1.527-3.262 1.16-.542 2.684 5.737-1.334.621-4.03-2.51c-.266-.169-.435-.276-.497-.321l-.017.011c.09.124.226.384.407.774l1.531 3.273-1.158.543-2.685-5.737.005-.006zm-.023 3.29c.237.96.152 1.814-.26 2.56-.413.746-1.08 1.232-2.007 1.458-.876.215-1.656.102-2.34-.35-.678-.452-1.136-1.136-1.362-2.058-.237-.955-.153-1.803.26-2.538.407-.734 1.063-1.215 1.967-1.435.882-.22 1.667-.108 2.363.333.695.441 1.153 1.12 1.379 2.03zm-1.362.412c-.147-.6-.413-1.051-.797-1.362-.385-.311-.826-.401-1.329-.277-.514.124-.87.407-1.062.842-.198.435-.22.961-.068 1.571.158.64.424 1.114.791 1.413.368.306.808.39 1.312.266.514-.124.87-.418 1.073-.87.204-.453.227-.984.08-1.589v.006zm-8.365.255l2.407-.232.09.926-2.407.232-.09-.927zm-2.76.305l.063-2.21 1.351.04-.18 6.33-2.177-.062c-1.577-.046-2.346-.735-2.306-2.07.017-.65.271-1.163.757-1.537.486-.373 1.085-.548 1.803-.508l.696.022-.006-.005zm-.09 3.08l.057-2.046-.582-.017c-.791-.023-1.198.311-1.221 1-.017.673.362 1.024 1.147 1.046l.6.017zm-3.973-2.345c-.198.972-.639 1.706-1.334 2.204-.69.497-1.503.65-2.436.463-.887-.18-1.543-.621-1.961-1.317-.424-.7-.537-1.514-.35-2.442.197-.966.632-1.695 1.322-2.181.684-.486 1.48-.639 2.39-.458.888.18 1.555.616 1.99 1.317.436.695.566 1.503.38 2.425v-.012zm-1.407-.21c.124-.605.073-1.124-.136-1.571-.215-.44-.576-.712-1.08-.82-.52-.107-.96 0-1.322.306-.362.305-.605.774-.735 1.396-.13.644-.096 1.187.113 1.616.204.43.56.701 1.074.803.52.107.966 0 1.34-.328.378-.322.627-.791.751-1.407l-.005.005zm-8.303-5.697l3.481 1.305-2.227 5.93-1.266-.475 1.843-4.895-2.216-.83.39-1.035h-.005zm-7.139 3.414l3.719-2.651 1.046-2.007 1.198.622-1.034 1.984-.113 4.561-1.368-.712.175-2.64c0-.05.034-.226.096-.514h-.017a2.38 2.38 0 01-.345.362l-2.091 1.65-1.272-.661.006.006zm-2.024-9.422l-2.402 3c-.22.278-.514.617-.876 1.013l.023.022c.316-.265.537-.435.66-.514l3.952-2.43.836.672-1.47 4.364c-.033.107-.163.367-.378.79l.028.023c.306-.435.622-.864.961-1.282l2.238-2.798.95.763-3.962 4.945-1.532-1.226 1.328-3.844c.108-.316.232-.599.373-.842l-.022-.017a9.386 9.386 0 01-.769.537l-3.46 2.125-1.491-1.192 3.962-4.946 1.04.83.011.007zm-4.239-4.646l2.447 2.843-4.798 4.131-2.352-2.73.837-.718 1.47 1.707 1.13-.972-1.368-1.588.837-.718 1.368 1.588 1.164-1-1.566-1.82.837-.718-.006-.005zm-3.295-5.088l.83 1.312-.858 1.718c-.181.356-.277.616-.289.774a.733.733 0 00.096.43l.22.344 2.075-1.31.724 1.14-5.353 3.387-1.187-1.877c-.803-1.272-.724-2.216.243-2.832a1.675 1.675 0 011.142-.271c.395.05.763.226 1.108.531l.01-.011c-.073-.3.03-.746.3-1.334l.95-2.012-.011.011zm-2.414 6.11l1.543-.972-.356-.56c-.17-.265-.384-.435-.639-.497a.917.917 0 00-.734.124c-.486.306-.543.747-.175 1.329l.367.582-.006-.006z" fill="#262761"/></svg>
